src/asset/cabinet/loading_failed_120.svg

<svg width="120" height="120" viewBox="0 0 120 120" fill="none" xmlns="http://www.w3.org/2000/svg">
<path fill-rule="evenodd" clip-rule="evenodd" d="M69.2316 48.0296C70.2554 48.231 71 49.1297 71 50.1834V54.8166C71 55.8703 70.2709 56.769 69.2781 56.9705L66.5325 57.5128C65.8034 57.6523 65.1984 58.1636 64.9192 58.8454C64.9037 58.8454 64.9037 58.8609 64.9037 58.8609C64.6089 59.5582 64.671 60.333 65.0898 60.9528L66.6411 63.2771C67.215 64.1449 67.1064 65.307 66.3618 66.0508L63.0887 69.3204C62.3442 70.0641 61.1807 70.1881 60.312 69.5993L57.9852 68.0497C57.3647 67.6468 56.5736 67.5849 55.8911 67.8638C55.8911 67.8793 55.8755 67.8793 55.8755 67.8793C55.193 68.1582 54.6811 68.7625 54.5415 69.4908L53.9986 72.2335C53.7969 73.2562 52.8972 74 51.8424 74H47.2042C46.1493 74 45.2496 73.2562 45.048 72.2335L44.5051 69.4908C44.3654 68.7625 43.8535 68.1582 43.171 67.8793C43.171 67.8638 43.1555 67.8638 43.1555 67.8638C42.4574 67.5694 41.6818 67.6314 41.0613 68.0497L38.7345 69.5993C37.8658 70.1726 36.7024 70.0641 35.9578 69.3204L32.6847 66.0508C31.9401 65.307 31.816 64.1449 32.4055 63.2771L33.9567 60.9528C34.36 60.333 34.4221 59.5427 34.1429 58.8609C34.1273 58.8609 34.1273 58.8454 34.1273 58.8454C33.8481 58.1636 33.2431 57.6523 32.5141 57.5128L29.7684 56.9705C28.7446 56.769 28 55.8703 28 54.8166V50.1834C28 49.1297 28.7446 48.231 29.7684 48.0296L32.5141 47.4872C33.2431 47.3477 33.8481 46.8364 34.1273 46.1546C34.1429 46.1546 34.1429 46.1391 34.1429 46.1391C34.4376 45.4418 34.3755 44.667 33.9567 44.0472L32.4055 41.7229C31.8315 40.8551 31.9401 39.693 32.6847 38.9492L35.9578 35.6796C36.7024 34.9359 37.8658 34.8119 38.7345 35.4007L41.0613 36.9503C41.6818 37.3532 42.4729 37.4151 43.1555 37.1362C43.1555 37.1207 43.171 37.1207 43.171 37.1207C43.8535 36.8418 44.3654 36.2375 44.5051 35.5092L45.048 32.7665C45.2496 31.7438 46.1493 31 47.2042 31H51.7958C52.8506 31 53.7504 31.7438 53.952 32.7665L54.4949 35.5092C54.6346 36.2375 55.1465 36.8418 55.829 37.1207C55.829 37.1362 55.8445 37.1362 55.8445 37.1362C56.5426 37.4306 57.3182 37.3686 57.9387 36.9503L60.2655 35.4007C61.1342 34.8274 62.2976 34.9359 63.0422 35.6796L66.3153 38.9492C67.0599 39.693 67.184 40.8551 66.5945 41.7229L65.0433 44.0472C64.64 44.667 64.5779 45.4573 64.8571 46.1391C64.8727 46.1391 64.8727 46.1546 64.8727 46.1546C65.1519 46.8364 65.7569 47.3477 66.4859 47.4872L69.2316 48.0296ZM60 52.5C60 58.299 55.299 63 49.5 63C43.701 63 39 58.299 39 52.5C39 46.701 43.701 42 49.5 42C55.299 42 60 46.701 60 52.5Z" fill="url(#paint0_linear)"/>
<path fill-rule="evenodd" clip-rule="evenodd" d="M91.8896 67.693C92.5325 67.8195 93 68.3838 93 69.0454V71.9546C93 72.6162 92.5422 73.1805 91.9188 73.307L90.1948 73.6476C89.737 73.7351 89.3571 74.0562 89.1818 74.4843C89.1721 74.4843 89.1721 74.4941 89.1721 74.4941C88.987 74.9319 89.026 75.4184 89.289 75.8076L90.263 77.267C90.6234 77.8119 90.5552 78.5416 90.0877 79.0086L88.0325 81.0616C87.5649 81.5287 86.8344 81.6065 86.289 81.2368L84.8279 80.2638C84.4383 80.0108 83.9416 79.9719 83.513 80.147C83.513 80.1568 83.5032 80.1568 83.5032 80.1568C83.0747 80.3319 82.7532 80.7114 82.6656 81.1686L82.3247 82.8908C82.1981 83.533 81.6331 84 80.9708 84H78.0584C77.3961 84 76.8312 83.533 76.7045 82.8908L76.3636 81.1686C76.276 80.7114 75.9545 80.3319 75.526 80.1568C75.526 80.147 75.5162 80.147 75.5162 80.147C75.0779 79.9622 74.5909 80.0011 74.2013 80.2638L72.7403 81.2368C72.1948 81.5968 71.4643 81.5287 70.9968 81.0616L68.9416 79.0086C68.474 78.5416 68.3961 77.8119 68.7662 77.267L69.7403 75.8076C69.9935 75.4184 70.0325 74.9222 69.8571 74.4941C69.8474 74.4941 69.8474 74.4843 69.8474 74.4843C69.6721 74.0562 69.2922 73.7351 68.8344 73.6476L67.1104 73.307C66.4675 73.1805 66 72.6162 66 71.9546V69.0454C66 68.3838 66.4675 67.8195 67.1104 67.693L68.8344 67.3524C69.2922 67.2649 69.6721 66.9438 69.8474 66.5157C69.8571 66.5157 69.8571 66.5059 69.8571 66.5059C70.0422 66.0681 70.0032 65.5816 69.7403 65.1924L68.7662 63.733C68.4058 63.1881 68.474 62.4584 68.9416 61.9914L70.9968 59.9384C71.4643 59.4714 72.1948 59.3935 72.7403 59.7632L74.2013 60.7362C74.5909 60.9892 75.0877 61.0281 75.5162 60.853C75.5162 60.8432 75.526 60.8432 75.526 60.8432C75.9545 60.6681 76.276 60.2886 76.3636 59.8314L76.7045 58.1092C76.8312 57.467 77.3961 57 78.0584 57H80.9416C81.6039 57 82.1688 57.467 82.2955 58.1092L82.6364 59.8314C82.724 60.2886 83.0455 60.6681 83.474 60.8432C83.474 60.853 83.4838 60.853 83.4838 60.853C83.9221 61.0378 84.4091 60.9989 84.7987 60.7362L86.2597 59.7632C86.8052 59.4032 87.5357 59.4714 88.0032 59.9384L90.0584 61.9914C90.526 62.4584 90.6039 63.1881 90.2338 63.733L89.2597 65.1924C89.0065 65.5816 88.9675 66.0778 89.1429 66.5059C89.1526 66.5059 89.1526 66.5157 89.1526 66.5157C89.3279 66.9438 89.7078 67.2649 90.1656 67.3524L91.8896 67.693ZM85 70.5C85 73.5376 82.5376 76 79.5 76C76.4624 76 74 73.5376 74 70.5C74 67.4624 76.4624 65 79.5 65C82.5376 65 85 67.4624 85 70.5Z" fill="url(#paint1_linear)"/>
<path fill-rule="evenodd" clip-rule="evenodd" d="M67.3009 80.7326C67.7056 80.8123 68 81.1676 68 81.5841V83.4159C68 83.8324 67.7118 84.1877 67.3193 84.2674L66.2338 84.4818C65.9455 84.5369 65.7063 84.7391 65.596 85.0086C65.5898 85.0086 65.5898 85.0148 65.5898 85.0148C65.4733 85.2905 65.4978 85.5968 65.6634 85.8418L66.2767 86.7607C66.5036 87.1038 66.4607 87.5632 66.1663 87.8573L64.8723 89.1499C64.5779 89.444 64.118 89.493 63.7745 89.2602L62.8546 88.6476C62.6093 88.4883 62.2965 88.4638 62.0267 88.5741C62.0267 88.5802 62.0206 88.5802 62.0206 88.5802C61.7507 88.6905 61.5483 88.9294 61.4931 89.2173L61.2785 90.3016C61.1988 90.7059 60.8431 91 60.426 91H58.5924C58.1753 91 57.8196 90.7059 57.7399 90.3016L57.5253 89.2173C57.4701 88.9294 57.2677 88.6905 56.9978 88.5802C56.9978 88.5741 56.9917 88.5741 56.9917 88.5741C56.7157 88.4577 56.4091 88.4822 56.1638 88.6476L55.2439 89.2602C54.9004 89.4868 54.4405 89.444 54.1461 89.1499L52.8521 87.8573C52.5577 87.5632 52.5087 87.1038 52.7417 86.7607L53.355 85.8418C53.5144 85.5968 53.539 85.2843 53.4286 85.0148C53.4224 85.0148 53.4224 85.0086 53.4224 85.0086C53.312 84.7391 53.0729 84.5369 52.7846 84.4818L51.6991 84.2674C51.2944 84.1877 51 83.8324 51 83.4159V81.5841C51 81.1676 51.2944 80.8123 51.6991 80.7326L52.7846 80.5182C53.0729 80.4631 53.312 80.2609 53.4224 79.9914C53.4286 79.9914 53.4286 79.9852 53.4286 79.9852C53.5451 79.7095 53.5206 79.4032 53.355 79.1582L52.7417 78.2393C52.5148 77.8962 52.5577 77.4368 52.8521 77.1427L54.1461 75.8501C54.4405 75.556 54.9004 75.507 55.2439 75.7398L56.1638 76.3524C56.4091 76.5117 56.7219 76.5362 56.9917 76.4259C56.9917 76.4198 56.9978 76.4198 56.9978 76.4198C57.2677 76.3095 57.4701 76.0706 57.5253 75.7827L57.7399 74.6984C57.8196 74.2941 58.1753 74 58.5924 74H60.4076C60.8247 74 61.1804 74.2941 61.2601 74.6984L61.4747 75.7827C61.5299 76.0706 61.7323 76.3095 62.0022 76.4198C62.0022 76.4259 62.0083 76.4259 62.0083 76.4259C62.2843 76.5423 62.5909 76.5178 62.8362 76.3524L63.7561 75.7398C64.0996 75.5132 64.5595 75.556 64.8539 75.8501L66.1479 77.1427C66.4423 77.4368 66.4913 77.8962 66.2583 78.2393L65.645 79.1582C65.4856 79.4032 65.461 79.7157 65.5714 79.9852C65.5776 79.9852 65.5776 79.9914 65.5776 79.9914C65.688 80.2609 65.9271 80.4631 66.2154 80.5182L67.3009 80.7326ZM63 82.5C63 84.433 61.433 86 59.5 86C57.567 86 56 84.433 56 82.5C56 80.567 57.567 79 59.5 79C61.433 79 63 80.567 63 82.5Z" fill="url(#paint2_linear)"/>
<path d="M75.5 45L74 54L83.5 51.5L78.5 50.5L83.5 42L76.5 49.5L75.5 45Z" fill="url(#paint3_linear)"/>
<path d="M38 78.5L48 77.5L46 84.5L45 81.5L39 85.5L43 79.5L38 78.5Z" fill="url(#paint4_linear)"/>
<defs>
    <linearGradient id="paint0_linear" x1="72.4077" y1="83.9821" x2="43.7585" y2="91.8397" gradientUnits="userSpaceOnUse">
        <stop stop-color="#658BF5"/>
        <stop offset="1" stop-color="#8DB0FF"/>
    </linearGradient>
    <linearGradient id="paint1_linear" x1="66" y1="84" x2="93" y2="57" gradientUnits="userSpaceOnUse">
        <stop stop-color="#FFC75D"/>
        <stop offset="1" stop-color="#FFA363"/>
    </linearGradient>
    <linearGradient id="paint2_linear" x1="68.5565" y1="94.9464" x2="57.2301" y2="98.0529" gradientUnits="userSpaceOnUse">
        <stop stop-color="#658BF5"/>
        <stop offset="1" stop-color="#8DB0FF"/>
    </linearGradient>
    <linearGradient id="paint3_linear" x1="74" y1="54" x2="85.6798" y2="44.7535" gradientUnits="userSpaceOnUse">
        <stop stop-color="#FFC75D"/>
        <stop offset="1" stop-color="#FFA363"/>
    </linearGradient>
    <linearGradient id="paint4_linear" x1="38" y1="85.5" x2="45.8049" y2="75.7439" gradientUnits="userSpaceOnUse">
        <stop stop-color="#FFC75D"/>
        <stop offset="1" stop-color="#FFA363"/>
    </linearGradient>
</defs>
</svg>

<svg width="120" height="120" fill="none" xmlns="http://www.w3.org/2000/svg"><path fill-rule="evenodd" clip-rule="evenodd" d="M69.232 48.03A2.193 2.193 0 0171 50.183v4.634c0 1.053-.73 1.952-1.722 2.154l-2.746.542c-.729.14-1.334.65-1.613 1.332-.015 0-.015.016-.015.016a2.183 2.183 0 00.186 2.092l1.551 2.324c.574.868.465 2.03-.28 2.774l-3.272 3.27a2.19 2.19 0 01-2.777.278l-2.327-1.55a2.28 2.28 0 00-2.094-.185c0 .015-.015.015-.015.015a2.202 2.202 0 00-1.334 1.612l-.543 2.743A2.194 2.194 0 0151.842 74h-4.638a2.194 2.194 0 01-2.156-1.766l-.543-2.743a2.202 2.202 0 00-1.334-1.612c0-.015-.015-.015-.015-.015a2.19 2.19 0 00-2.095.186l-2.327 1.55a2.21 2.21 0 01-2.776-.28l-3.273-3.27a2.185 2.185 0 01-.28-2.773l1.552-2.324c.403-.62.465-1.41.186-2.092-.016 0-.016-.016-.016-.016a2.203 2.203 0 00-1.613-1.332l-2.746-.542A2.193 2.193 0 0128 54.817v-4.634c0-1.053.745-1.952 1.768-2.153l2.746-.543a2.203 2.203 0 001.613-1.332c.016 0 .016-.016.016-.016a2.183 2.183 0 00-.186-2.092l-1.551-2.324a2.204 2.204 0 01.279-2.774l3.273-3.27a2.19 2.19 0 012.776-.278l2.327 1.55a2.28 2.28 0 002.095.185c0-.015.015-.015.015-.015a2.202 2.202 0 001.334-1.612l.543-2.742A2.194 2.194 0 0147.204 31h4.592c1.055 0 1.954.744 2.156 1.767l.543 2.742c.14.728.652 1.333 1.334 1.612 0 .015.015.015.015.015a2.19 2.19 0 002.095-.186l2.327-1.55a2.21 2.21 0 012.776.28l3.273 3.27c.745.743.869 1.905.28 2.773l-1.552 2.324a2.274 2.274 0 00-.186 2.092c.016 0 .016.016.016.016.279.681.884 1.193 1.613 1.332l2.746.543zM60 52.5C60 58.299 55.299 63 49.5 63S39 58.299 39 52.5 43.701 42 49.5 42 60 46.701 60 52.5z" fill="url(#paint0_linear)"/><path fill-rule="evenodd" clip-rule="evenodd" d="M91.89 67.693c.642.127 1.11.69 1.11 1.352v2.91a1.37 1.37 0 01-1.081 1.352l-1.724.34a1.383 1.383 0 00-1.013.837c-.01 0-.01.01-.01.01a1.37 1.37 0 00.117 1.314l.974 1.459c.36.545.292 1.275-.175 1.742l-2.055 2.053a1.375 1.375 0 01-1.744.175l-1.461-.973a1.432 1.432 0 00-1.315-.117c0 .01-.01.01-.01.01-.428.175-.75.554-.837 1.012l-.341 1.722A1.378 1.378 0 0180.97 84h-2.913a1.378 1.378 0 01-1.354-1.11l-.34-1.721a1.383 1.383 0 00-.838-1.012c0-.01-.01-.01-.01-.01a1.375 1.375 0 00-1.315.117l-1.46.973a1.388 1.388 0 01-1.744-.175l-2.055-2.053a1.372 1.372 0 01-.176-1.742l.974-1.46c.254-.389.293-.885.117-1.313-.01 0-.01-.01-.01-.01a1.383 1.383 0 00-1.013-.836l-1.724-.341A1.377 1.377 0 0166 71.955v-2.91c0-.661.468-1.225 1.11-1.352l1.724-.34a1.383 1.383 0 001.013-.837c.01 0 .01-.01.01-.01a1.371 1.371 0 00-.117-1.314l-.974-1.459a1.384 1.384 0 01.176-1.742l2.055-2.053a1.376 1.376 0 011.743-.175l1.461.973c.39.253.887.292 1.315.117 0-.01.01-.01.01-.01.428-.175.75-.554.838-1.012l.34-1.722A1.378 1.378 0 0178.058 57h2.884c.662 0 1.227.467 1.354 1.11l.34 1.721c.088.458.41.837.838 1.012 0 .01.01.01.01.01.438.185.925.146 1.315-.117l1.46-.973a1.388 1.388 0 011.744.175l2.055 2.053c.468.467.546 1.197.176 1.742l-.974 1.46c-.254.389-.293.885-.117 1.313.01 0 .01.01.01.01.175.428.555.749 1.013.836l1.724.341zM85 70.5a5.5 5.5 0 11-11 0 5.5 5.5 0 0111 0z" fill="url(#paint1_linear)"/><path fill-rule="evenodd" clip-rule="evenodd" d="M67.3 80.733c.406.08.7.435.7.851v1.832a.863.863 0 01-.68.851l-1.086.215a.87.87 0 00-.638.527c-.006 0-.006.006-.006.006a.863.863 0 00.073.827l.614.919a.872.872 0 01-.11 1.096l-1.295 1.293a.866.866 0 01-1.097.11l-.92-.612a.901.901 0 00-.828-.074c0 .006-.006.006-.006.006a.87.87 0 00-.528.637l-.215 1.085a.868.868 0 01-.852.698h-1.834a.868.868 0 01-.852-.698l-.215-1.085a.87.87 0 00-.527-.637c0-.006-.006-.006-.006-.006a.866.866 0 00-.828.074l-.92.612a.874.874 0 01-1.098-.11l-1.294-1.293a.864.864 0 01-.11-1.096l.613-.92a.899.899 0 00.074-.826c-.007 0-.007-.006-.007-.006a.871.871 0 00-.637-.527l-1.086-.215a.867.867 0 01-.699-.851v-1.832c0-.416.294-.772.7-.851l1.085-.215a.871.871 0 00.637-.527c.007 0 .007-.006.007-.006a.863.863 0 00-.074-.827l-.613-.919a.872.872 0 01.11-1.096l1.294-1.293a.866.866 0 011.098-.11l.92.612c.245.16.558.184.828.074 0-.006.006-.006.006-.006a.87.87 0 00.527-.637l.215-1.085a.868.868 0 01.852-.698h1.816c.417 0 .772.294.852.698l.215 1.085a.87.87 0 00.527.637c0 .006.006.006.006.006a.866.866 0 00.828-.074l.92-.612a.874.874 0 011.098.11l1.294 1.293a.864.864 0 01.11 1.096l-.613.92a.899.899 0 00-.074.826c.007 0 .007.006.007.006.11.27.35.472.637.527l1.086.215zM63 82.5a3.5 3.5 0 11-7 0 3.5 3.5 0 017 0z" fill="url(#paint2_linear)"/><path d="M75.5 45L74 54l9.5-2.5-5-1 5-8.5-7 7.5-1-4.5z" fill="url(#paint3_linear)"/><path d="M38 78.5l10-1-2 7-1-3-6 4 4-6-5-1z" fill="url(#paint4_linear)"/><defs><linearGradient id="paint0_linear" x1="72.408" y1="83.982" x2="43.758" y2="91.84" gradientUnits="userSpaceOnUse"><stop stop-color="#658BF5"/><stop offset="1" stop-color="#8DB0FF"/></linearGradient><linearGradient id="paint1_linear" x1="66" y1="84" x2="93" y2="57" gradientUnits="userSpaceOnUse"><stop stop-color="#FFC75D"/><stop offset="1" stop-color="#FFA363"/></linearGradient><linearGradient id="paint2_linear" x1="68.556" y1="94.946" x2="57.23" y2="98.053" gradientUnits="userSpaceOnUse"><stop stop-color="#658BF5"/><stop offset="1" stop-color="#8DB0FF"/></linearGradient><linearGradient id="paint3_linear" x1="74" y1="54" x2="85.68" y2="44.754" gradientUnits="userSpaceOnUse"><stop stop-color="#FFC75D"/><stop offset="1" stop-color="#FFA363"/></linearGradient><linearGradient id="paint4_linear" x1="38" y1="85.5" x2="45.805" y2="75.744" gradientUnits="userSpaceOnUse"><stop stop-color="#FFC75D"/><stop offset="1" stop-color="#FFA363"/></linearGradient></defs></svg>
